X:448
T:Tullochgorum
R:Strathspey
O:Scotland
B:Kerr's First p10
S:Kerr's First p10
Z:Transcription, chords:Mike Long
M:4/4
L:1/8
K:C
c|:\
"G"B<G d>G "F"A<F A>c|"G"B<G d>G B>c d<g|\
"G"B<G d>G "F"A<F A>c|"G"B<G d>G "C/F"(3(ABc) "G"B>A:|
"G"G<g d>e "F"f>F A2|"G"G>gd>g B>gd>g|\
"G"G<g d>e "F"f>F A2|"G"G<g d>c "C"c>BA>B|
"G"G<g d>e "F"f>F A2|"G"G<g d>e "(F)"f>ga>g|\
"F"f>efd c<F A>a|"G"g>d g<b "C"e<g d>c|]
